Project/img/VIEW.svg

<svg xmlns="http://www.w3.org/2000/svg" xmlns:xlink="http://www.w3.org/1999/xlink" preserveAspectRatio="xMidYMid" width="19.44" height="11.25" viewBox="0 0 19.44 11.25">
  <defs>
    <style>
      .cls-1 {
        fill: #95e1d3;
        fill-rule: evenodd;
      }
    </style>
  </defs>
  <path d="M19.430,5.646 C19.429,5.654 19.429,5.663 19.428,5.670 C19.428,5.674 19.427,5.679 19.427,5.683 C19.427,5.689 19.425,5.695 19.425,5.700 C19.424,5.707 19.423,5.714 19.422,5.721 C19.422,5.722 19.422,5.723 19.422,5.723 C19.398,5.878 19.327,6.021 19.219,6.133 C19.015,6.380 18.792,6.612 18.568,6.840 C17.357,8.070 15.966,9.167 14.445,9.962 C13.472,10.471 12.433,10.881 11.355,11.078 C10.170,11.295 8.984,11.284 7.805,11.028 C5.765,10.584 3.918,9.483 2.302,8.165 C1.552,7.554 0.814,6.885 0.194,6.133 C-0.078,5.804 -0.078,5.414 0.194,5.085 C0.397,4.838 0.620,4.605 0.845,4.377 C2.056,3.148 3.446,2.051 4.968,1.255 C5.940,0.747 6.979,0.336 8.057,0.139 C9.242,-0.077 10.428,-0.067 11.607,0.190 C13.647,0.633 15.494,1.735 17.110,3.052 C17.860,3.663 18.598,4.333 19.218,5.085 C19.327,5.196 19.397,5.340 19.421,5.494 C19.421,5.495 19.421,5.496 19.422,5.497 C19.423,5.503 19.423,5.511 19.424,5.517 C19.425,5.523 19.426,5.529 19.427,5.535 C19.427,5.539 19.427,5.543 19.428,5.547 C19.428,5.555 19.429,5.564 19.429,5.572 C19.430,5.584 19.431,5.596 19.431,5.609 C19.431,5.621 19.430,5.634 19.430,5.646 ZM9.710,1.812 C7.697,1.812 6.065,3.444 6.065,5.457 C6.065,7.470 7.697,9.102 9.710,9.102 C11.724,9.102 13.355,7.470 13.355,5.457 C13.355,3.444 11.724,1.812 9.710,1.812 ZM9.710,7.279 C8.704,7.279 7.888,6.464 7.888,5.457 C7.888,4.450 8.704,3.634 9.710,3.634 C10.717,3.634 11.533,4.450 11.533,5.457 C11.533,6.464 10.717,7.279 9.710,7.279 Z" class="cls-1"/>
</svg>

<svg xmlns="http://www.w3.org/2000/svg" width="19.44" height="11.25" preserveAspectRatio="xMidYMid"><defs><style>.cls-1 { fill: #95e1d3; fill-rule: evenodd; }</style></defs><path d="M19.43 5.65s0 0 0 .02 0 .03 0 .03 0 0 0 .02c-.03.16-.1.3-.2.4-.2.26-.44.5-.66.72-1.2 1.23-2.6 2.33-4.13 3.12-.97.5-2 .92-3.08 1.12-1.2.2-2.38.2-3.55-.05-2.04-.45-3.88-1.55-5.5-2.87C1.55 7.56.8 6.88.2 6.13-.1 5.8-.1 5.4.2 5.1c.2-.26.42-.5.65-.72 1.2-1.23 2.6-2.33 4.12-3.13.97-.5 2-.9 3.1-1.1 1.17-.23 2.36-.22 3.54.04 2.05.43 3.9 1.54 5.5 2.85.76.6 1.5 1.28 2.12 2.04.1.1.18.24.2.4 0 0 0 0 0 .02 0 0 0 0 0 .02 0 0 0 .02 0 .03 0 0 0 .03 0 .04 0 .02 0 .03 0 .05zM9.7 1.8c-2 0-3.63 1.64-3.63 3.66 0 2 1.63 3.64 3.64 3.64 2.02 0 3.66-1.63 3.66-3.64 0-2.02-1.64-3.65-3.65-3.65zm0 5.48c-1 0-1.8-.82-1.8-1.82s.8-1.83 1.8-1.83c1.02 0 1.83.82 1.83 1.83 0 1-.8 1.82-1.82 1.82z" class="cls-1"/></svg>
